X: 7025
T: Child Of My Heart
R: jig
M: 6/8
K: Aminor
|:A3~ AGE|c3 DEG|A3~ AGE|GED DEG|
A3~ AGE|c3 c2d|edc dcA|GEA GED:|

